src/assets/icons/filters/location.svg

<svg width="45" height="48" viewBox="0 0 45 48" fill="none" xmlns="http://www.w3.org/2000/svg">
<path fill-rule="evenodd" clip-rule="evenodd" d="M44.9496 21.2068C44.9496 9.49012 35.0427 0 22.8319 0C10.6214 0 0.714279 9.49031 0.714279 21.2068C0.714279 21.9303 0.752408 22.6531 0.828408 23.374C1.33393 32.7875 10.2801 42.3295 21.2364 47.0177C21.8204 47.2331 22.3364 47.3287 22.873 47.3287C23.4648 47.3287 23.9439 47.2343 24.4949 47.0104C24.63 46.9526 24.6317 46.9519 24.7094 46.9182L24.7664 46.8931L24.8735 46.8456C35.7488 41.9997 44.349 32.5902 44.8454 23.2499C44.9126 22.6322 44.9496 21.916 44.9496 21.2068ZM22.9214 43.1636L22.8535 43.1929L22.8508 43.1921C13.5281 39.1987 5.50353 30.7478 5.08848 23.0564C5.01957 22.3785 4.98828 21.7948 4.98828 21.2067C4.98828 11.7822 12.9732 4.13335 22.8319 4.13335C32.6909 4.13335 40.6756 11.782 40.6756 21.2067C40.6756 21.7819 40.6453 22.3585 40.5851 22.936C40.1753 30.6005 32.4714 38.9088 23.0864 43.0906C22.9795 43.1381 22.9779 43.1388 22.9214 43.1636ZM22.8319 28.0583C26.8982 28.0583 30.1867 24.9076 30.1867 21.0312C30.1867 17.1554 26.8982 14.0052 22.8319 14.0052C18.7655 14.0052 15.4767 17.1556 15.4767 21.0312C15.4767 24.9075 18.7655 28.0583 22.8319 28.0583ZM11.2028 21.0313C11.2028 27.1996 16.4138 32.1918 22.832 32.1918C29.2501 32.1918 34.4608 27.1997 34.4608 21.0313C34.4608 14.8636 29.25 9.87187 22.832 9.87187C16.4139 9.87187 11.2028 14.8636 11.2028 21.0313Z" fill="#253238"/>
</svg>

<svg width="45" height="48" viewBox="0 0 45 48" fill="none" xmlns="http://www.w3.org/2000/svg"><path fill-rule="evenodd" clip-rule="evenodd" d="M44.95 21.207C44.95 9.49 35.043 0 22.832 0 10.622 0 .714 9.49.714 21.207c0 .723.038 1.446.114 2.167.506 9.414 9.452 18.956 20.408 23.644.584.215 1.1.31 1.637.31.592 0 1.07-.094 1.622-.318l.214-.092.057-.025.108-.047C35.748 42 44.349 32.59 44.844 23.25a19.43 19.43 0 00.105-2.043zM22.92 43.164l-.067.029h-.003C13.528 39.198 5.504 30.747 5.088 23.055c-.068-.678-.1-1.261-.1-1.85 0-9.424 7.985-17.073 17.844-17.073 9.859 0 17.844 7.649 17.844 17.074 0 .575-.03 1.151-.09 1.729-.41 7.665-8.115 15.973-17.5 20.155l-.165.073zm-.09-15.106c4.067 0 7.356-3.15 7.356-7.027 0-3.876-3.289-7.026-7.355-7.026-4.067 0-7.355 3.15-7.355 7.026 0 3.877 3.288 7.027 7.355 7.027zm-11.628-7.027c0 6.169 5.21 11.16 11.629 11.16 6.418 0 11.629-4.991 11.629-11.16 0-6.167-5.211-11.16-11.629-11.16-6.418 0-11.63 4.993-11.63 11.16z" fill="#253238"/></svg>
